X: 1
T: Zelda
C: Philippe Plard
R: jig
M: 6/8
L: 1/8
K: Amin
|:"Am"e2A e2A |fed e3 |"F"edc B2B|"G"Bcd c2A|
e2A e2A |fed e3 |"F"edc B2B|"G"BcB "Am"A3 :|
|: ABc "Am"E2E |ABc "F"F2F|ABc "G"B2B |dcB "Em"c2A |
ABc "Am"E2E |ABc "F"F2F|ABc "G"B2B |dcB A3 :|
